resources/haticons/SVG/hypothesis.svg

<!-- Generated by IcoMoon.io -->
<svg version="1.1" xmlns="http://www.w3.org/2000/svg" width="24" height="24" viewBox="0 0 24 24">
<title>hypothesis</title>
<path fill="#bd1c2b" d="M3.43 0c-0.93 0-1.71 0.768-1.71 1.72v17.14c0 0.94 0.78 1.71 1.71 1.71h5.95l2.62 3.43 2.62-3.43h5.95c0.93 0 1.72-0.77 1.72-1.71v-17.14c0-0.95-0.79-1.72-1.72-1.72h-17.14zM5.14 3.43h2.58v6c0 0 0.86-1.71 2.56-1.71 1.72 0 3.46 0.85 3.46 3.52v5.9h-2.58v-5.14c0-1.39-0.88-1.93-1.73-1.71-0.86 0.21-1.71 1.12-1.71 3v3.85h-2.58v-13.71zM18 13.72c0.95 0 1.72 0.78 1.72 1.7 0 0 0 0 0 0 0 0.944-0.766 1.71-1.71 1.71-0.004 0-0.007 0-0.011-0h0.001c-0.944 0-1.71-0.766-1.71-1.71v0c0-0.92 0.76-1.71 1.71-1.7z"></path>
</svg>

<svg xmlns="http://www.w3.org/2000/svg" width="24" height="24"><path fill="#bd1c2b" d="M3.43 0C2.5 0 1.72.768 1.72 1.72v17.14c0 .94.78 1.71 1.71 1.71h5.95L12 24l2.62-3.43h5.95c.93 0 1.72-.77 1.72-1.71V1.72C22.29.77 21.5 0 20.57 0H3.43zm1.71 3.43h2.58v6s.86-1.71 2.56-1.71c1.72 0 3.46.85 3.46 3.52v5.9h-2.58V12c0-1.39-.88-1.93-1.73-1.71-.86.21-1.71 1.12-1.71 3v3.85H5.14V3.43zM18 13.72c.95 0 1.72.78 1.72 1.7a1.71 1.71 0 0 1-1.71 1.71h-.011H18a1.71 1.71 0 0 1-1.71-1.71c0-.92.76-1.71 1.71-1.7z"/></svg>
